_site/assets/img/parceiros/manserv.svg

<?xml version="1.0" encoding="UTF-8"?>
<svg width="689px" height="189px" viewBox="0 0 689 189" version="1.1" xmlns="http://www.w3.org/2000/svg" xmlns:xlink="http://www.w3.org/1999/xlink">
    <!-- Generator: Sketch 47.1 (45422) - http://www.bohemiancoding.com/sketch -->
    <title>manserv</title>
    <desc>Created with Sketch.</desc>
    <defs></defs>
    <g id="Page-1" stroke="none" stroke-width="1" fill="none" fill-rule="evenodd">
        <g id="Artboard" transform="translate(-2494.000000, -64.000000)" fill-rule="nonzero" fill="#F5823B">
            <g id="manserv" transform="translate(2494.000000, 64.000000)">
                <path d="M184.758588,85.0869643 C173.700157,85.0869643 159.992451,86.9225 150.579216,89.7928571 L153.65251,108.823393 C162.438196,106.99125 172.275451,105.759643 181.274843,105.759643 C197.241725,105.759643 200.301451,109.647857 200.301451,120.701786 L200.301451,126.428929 L176.369784,126.428929 C157.621333,126.428929 148.676216,133.085714 147.451647,150.128036 C147.353275,151.505536 147.292216,155.980714 147.292216,157.500714 C147.292216,174.7025 154.076529,188.874464 173.29649,188.874464 C183.327098,188.874464 193.968294,186.0075 202.971078,180.063214 L204.81302,186.828571 L225.271118,186.828571 L225.271118,121.112321 C225.271118,96.1408929 216.068196,85.0869643 184.758588,85.0869643 Z M200.301451,163.886071 C195.596529,166.55625 188.846137,169.009286 181.478373,169.009286 C173.700157,169.009286 171.447765,165.942143 171.447765,158.986786 C171.447765,158.14875 171.474902,155.315714 171.539353,154.620179 C172.024431,148.879464 174.592294,146.114286 181.888824,146.114286 L200.301451,146.114286 L200.301451,163.886071 Z M307.503784,85.0632143 C295.841549,85.0632143 280.074804,89.3653571 267.591667,95.5098214 L265.132353,87.1091071 L246.105745,87.1091071 L246.105745,186.815 L271.075412,186.815 L271.075412,117.614286 C280.071412,112.901607 290.933098,109.220357 297.072902,109.220357 C302.802255,109.220357 305.058039,111.873571 305.058039,117.20375 L305.058039,186.801429 L330.027706,164.690179 L330.027706,114.550536 C330.031098,96.7414286 324.094824,85.0632143 307.503784,85.0632143 Z M515.426039,0.628571429 L435.771412,0.628571429 L379.444647,50.4866071 L459.09249,50.4866071 L515.426039,0.628571429 Z M640.030137,162.871607 L617.319647,87.1260714 L591.732608,87.1260714 L623.673157,186.828571 L656.614392,186.828571 L688.541373,87.1260714 L662.961118,87.1260714 L640.030137,162.871607 Z M92.9905686,50.4866071 L64.5948235,149.524107 L36.1990784,50.4866071 L6.36505882,50.4866071 L0.228647059,186.828571 L26.6365882,186.828571 L28.8754118,98.5905357 L52.1116863,186.815 L77.0813529,186.815 L100.304059,98.5905357 L102.549667,186.828571 L128.950824,186.828571 L122.814412,50.4866071 L92.9905686,50.4866071 Z M475.693706,85.0869643 C443.753157,85.0869643 434.346706,102.892679 434.346706,123.9725 L434.346706,150.3825 C434.346706,174.342857 445.198216,188.874464 476.518,188.874464 C488.370196,188.874464 501.887941,186.828571 513.143118,182.529821 L509.259098,163.696071 C498.407588,166.953214 488.370196,168.391786 478.756824,168.391786 C463.610843,168.391786 459.31298,163.696071 459.31298,151.6175 L459.31298,146.494286 L514.774745,146.494286 L514.774745,125.214286 C514.771353,103.717143 507.607118,85.0869643 475.693706,85.0869643 Z M491.046608,126.425536 L459.31298,126.425536 L459.31298,121.522857 C459.31298,112.100893 463.614235,105.552679 475.90402,105.552679 C488.18702,105.552679 491.05,112.100893 491.05,121.522857 L491.05,126.425536 L491.046608,126.425536 Z M387.769,126.221964 C374.271608,122.740893 373.657627,122.123393 373.657627,114.14 C373.657627,107.985357 375.499569,105.535714 386.351078,105.535714 C389.220843,105.535714 392.69102,105.725714 396.296882,106.058214 L416.120647,88.51375 C407.521529,86.2880357 395.523471,85.0598214 386.354471,85.0598214 C357.897667,85.0598214 349.088235,93.8710714 349.088235,113.933036 C349.088235,133.173929 351.951216,139.311607 376.317078,145.255893 C392.490882,149.144107 393.722235,152.21125 393.722235,158.365893 C393.722235,165.935357 392.080431,168.385 381.022,168.385 C370.798039,168.385 359.743,166.552857 351.347412,164.08625 L347.863667,183.120179 C357.080157,186.394286 371.60198,188.864286 382.263529,188.864286 C412.348569,188.864286 418.284843,176.985893 418.284843,157.741607 C418.278059,137.269107 415.615216,133.584464 387.769,126.221964 Z M555.667196,98.18 L554.038961,87.1260714 L532.956706,87.1260714 L532.956706,186.828571 L557.912804,186.828571 L557.912804,122.533929 C566.929157,116.810179 574.768431,114.313036 584.388588,110.014286 L581.929275,87.0955357 C573.133412,89.5519643 561.199804,94.4953571 555.667196,98.18 Z M560.477275,0.628571429 L505.911039,48.9191071 L504.228529,50.4866071 L688.585471,50.4866071 L688.585471,0.628571429 L560.477275,0.628571429 Z" id="Shape"></path>
            </g>
        </g>
    </g>
</svg>

<svg width="689" height="189" viewBox="0 0 689 189" xmlns="http://www.w3.org/2000/svg"><title>manserv</title><path d="M184.759 85.087c-11.059 0-24.767 1.835-34.18 4.706l3.074 19.03c8.785-1.832 18.622-3.063 27.622-3.063 15.967 0 19.026 3.888 19.026 14.942v5.727H176.37c-18.749 0-27.694 6.657-28.918 23.699-.099 1.378-.16 5.853-.16 7.373 0 17.201 6.785 31.373 26.004 31.373 10.031 0 20.672-2.867 29.675-8.81l1.842 6.765h20.458v-65.717c0-24.971-9.203-36.025-40.512-36.025zm15.542 78.8c-4.704 2.67-11.455 5.122-18.823 5.122-7.778 0-10.03-3.067-10.03-10.022 0-.838.027-3.671.091-4.367.485-5.74 3.053-8.506 10.35-8.506H200.3v17.772zm107.203-78.824c-11.662 0-27.43 4.302-39.912 10.447l-2.46-8.4h-19.026v99.705h24.97v-69.2c8.995-4.713 19.857-8.395 25.997-8.395 5.73 0 7.985 2.654 7.985 7.984V186.8l24.97-22.11v-50.14c.003-17.81-5.933-29.488-22.524-29.488zM515.426.63h-79.655l-56.326 49.858h79.647L515.426.629zM640.03 162.872l-22.71-75.746h-25.587l31.94 99.703h32.941l31.927-99.703h-25.58l-22.93 75.746zM92.99 50.487l-28.395 99.037-28.396-99.037H6.365L.23 186.829h26.408l2.238-88.238 23.237 88.224h24.97l23.222-88.224 2.246 88.238h26.4l-6.136-136.342H92.991zm382.704 34.6c-31.94 0-41.347 17.806-41.347 38.885v26.41c0 23.96 10.851 38.492 42.171 38.492 11.852 0 25.37-2.045 36.625-6.344l-3.884-18.834c-10.851 3.257-20.889 4.696-30.502 4.696-15.146 0-19.444-4.696-19.444-16.774v-5.124h55.462v-21.28c-.004-21.497-7.168-40.127-39.081-40.127zm15.353 41.339h-31.734v-4.903c0-9.422 4.301-15.97 16.591-15.97 12.283 0 15.146 6.548 15.146 15.97v4.903h-.003zm-103.278-.204c-13.497-3.481-14.111-4.099-14.111-12.082 0-6.155 1.842-8.604 12.693-8.604 2.87 0 6.34.19 9.946.522l19.824-17.544c-8.6-2.226-20.598-3.454-29.767-3.454-28.456 0-37.266 8.811-37.266 28.873 0 19.24 2.863 25.379 27.23 31.323 16.173 3.888 17.404 6.955 17.404 13.11 0 7.57-1.642 10.019-12.7 10.019-10.224 0-21.279-1.832-29.675-4.299l-3.483 19.034c9.216 3.274 23.738 5.744 34.4 5.744 30.085 0 36.02-11.878 36.02-31.122-.006-20.473-2.669-24.158-30.515-31.52zM555.667 98.18l-1.628-11.054h-21.082v99.703h24.956v-64.295c9.016-5.724 16.855-8.221 26.476-12.52l-2.46-22.918c-8.796 2.456-20.73 7.4-26.262 11.084zm4.81-97.551l-54.566 48.29-1.682 1.568h184.356V.629H560.477z" fill="#F5823B"/></svg>
